dist/images/icons/mail.svg

<svg width="17" height="12" viewBox="0 0 17 12" fill="none" xmlns="http://www.w3.org/2000/svg">
<path d="M9.83716 7.80279C9.43909 8.06817 8.97672 8.20845 8.5 8.20845C8.02331 8.20845 7.56094 8.06817 7.16288 7.80279L0.606531 3.43176C0.570338 3.40756 0.534814 3.38238 0.5 3.35623L0.5 10.5186C0.5 11.3398 1.16641 11.9915 1.97291 11.9915H15.0271C15.8482 11.9915 16.5 11.3251 16.5 10.5186V3.3562C16.4651 3.38242 16.4295 3.40766 16.3932 3.43189L9.83716 7.80279Z" fill="#93AF99"/>
<path d="M1.12656 2.6518L7.68291 7.02286C7.93109 7.18833 8.21553 7.27105 8.49997 7.27105C8.78444 7.27105 9.06891 7.1883 9.31709 7.02286L15.8734 2.6518C16.2658 2.39039 16.5 1.95289 16.5 1.48071C16.5 0.668801 15.8395 0.00830078 15.0276 0.00830078H1.97241C1.16053 0.00833203 0.500001 0.668832 0.500001 1.48149C0.499757 1.71312 0.556845 1.9412 0.666171 2.14541C0.775497 2.34961 0.933664 2.52358 1.12656 2.6518Z" fill="#93AF99"/>
</svg>

<svg width="17" height="12" fill="none" xmlns="http://www.w3.org/2000/svg"><path d="M9.837 7.803a2.403 2.403 0 01-2.674 0L.607 3.432A2.38 2.38 0 01.5 3.356v7.163c0 .82.666 1.473 1.473 1.473h13.054c.821 0 1.473-.667 1.473-1.473V3.356a2.06 2.06 0 01-.107.076l-6.556 4.37z" fill="#93AF99"/><path d="M1.127 2.652l6.556 4.37a1.47 1.47 0 001.634 0l6.556-4.37c.393-.262.627-.7.627-1.171 0-.812-.66-1.473-1.472-1.473H1.972C1.161.008.5.668.5 1.481a1.404 1.404 0 00.627 1.17z" fill="#93AF99"/></svg>
